_includes/icons/ios-arrow-pointing-to-right.svg

<svg fill="#666" height="50" viewBox="0 0 50 50" width="50" xmlns="http://www.w3.org/2000/svg"><path d="m14.988281 3.992188c-.40625 0-.769531.246093-.925781.621093-.152344.378907-.0625.808594.230469 1.09375l19.292969 19.292969-19.292969 19.292969c-.261719.25-.367188.625-.273438.972656.089844.351563.363282.625.714844.714844.347656.09375.722656-.011719.972656-.273438l20-20c.390625-.390625.390625-1.023437 0-1.414062l-20-20c-.1875-.195313-.445312-.300781-.71875-.300781z"/></svg>

<svg xmlns="http://www.w3.org/2000/svg" viewBox="0 0 50 50" width="50" height="50" fill="#666"><path d="M 14.988281 3.992188 C 14.582031 3.992188 14.21875 4.238281 14.0625 4.613281 C 13.910156 4.992188 14 5.421875 14.292969 5.707031 L 33.585938 25 L 14.292969 44.292969 C 14.03125 44.542969 13.925781 44.917969 14.019531 45.265625 C 14.109375 45.617188 14.382813 45.890625 14.734375 45.980469 C 15.082031 46.074219 15.457031 45.96875 15.707031 45.707031 L 35.707031 25.707031 C 36.097656 25.316406 36.097656 24.683594 35.707031 24.292969 L 15.707031 4.292969 C 15.519531 4.097656 15.261719 3.992188 14.988281 3.992188 Z"/></svg>
